icons/numix/32x32/mimetypes/application-ascii.svg

<?xml version="1.0" encoding="UTF-8" standalone="no"?>
<svg
   xmlns:dc="http://purl.org/dc/elements/1.1/"
   xmlns:cc="http://creativecommons.org/ns#"
   xmlns:rdf="http://www.w3.org/1999/02/22-rdf-syntax-ns#"
   xmlns:svg="http://www.w3.org/2000/svg"
   xmlns="http://www.w3.org/2000/svg"
   xmlns:sodipodi="http://sodipodi.sourceforge.net/DTD/sodipodi-0.dtd"
   xmlns:inkscape="http://www.inkscape.org/namespaces/inkscape"
   width="32"
   height="32"
   viewBox="0 0 32 32"
   id="svg2"
   version="1.1"
   inkscape:version="0.48.5 r10040"
   sodipodi:docname="application-ascii.svg">
  <metadata
     id="metadata26">
    <rdf:RDF>
      <cc:Work
         rdf:about="">
        <dc:format>image/svg+xml</dc:format>
        <dc:type
           rdf:resource="http://purl.org/dc/dcmitype/StillImage" />
      </cc:Work>
    </rdf:RDF>
  </metadata>
  <defs
     id="defs24" />
  <sodipodi:namedview
     pagecolor="#ffffff"
     bordercolor="#666666"
     borderopacity="1"
     objecttolerance="10"
     gridtolerance="10"
     guidetolerance="10"
     inkscape:pageopacity="0"
     inkscape:pageshadow="2"
     inkscape:window-width="1280"
     inkscape:window-height="970"
     id="namedview22"
     showgrid="true"
     inkscape:zoom="14.75"
     inkscape:cx="3.197395"
     inkscape:cy="10.404395"
     inkscape:window-x="0"
     inkscape:window-y="0"
     inkscape:window-maximized="1"
     inkscape:current-layer="svg2">
    <inkscape:grid
       type="xygrid"
       id="grid3014" />
  </sodipodi:namedview>
  <path
     style="fill:#dcdcdc;fill-opacity:1"
     d="M 5.335888,2.977e-4 C 4.648414,3.126e-4 4,0.6767885 4,1.3940319 L 4,30.606268 C 4,31.282757 4.687474,32 5.335888,32 l 21.327332,0 c 0.648414,0 1.335888,-0.717243 1.335888,-1.393732 L 28,9.0000004 l -9,-9 z"
     id="path4-1"
     inkscape:connector-curvature="0"
     sodipodi:nodetypes="ssssssccs" />
  <path
     style="fill:#000000;fill-opacity:0.19599998"
     d="M 21,9.0000004 28,16 28,9.0000004 z"
     id="path6-4"
     inkscape:connector-curvature="0"
     sodipodi:nodetypes="cccc" />
  <path
     style="fill:#ffffff;fill-opacity:0.39200003"
     d="m 19.000306,2.977e-4 8.991594,8.9997027 -7.613262,0 c -0.672951,0 -1.378332,-0.7134896 -1.378332,-1.3864402 z"
     id="path8-6"
     inkscape:connector-curvature="0"
     sodipodi:nodetypes="ccssc" />
  <g
     style="fill:#545454"
     id="g10"
     transform="matrix(1.040476,0,0,1.040476,-0.61754897,-0.0743741)">
    <path
       d="M 9.347656,21.210938 9.125,19.882812 l -1.265625,0 -0.210937,1.328126 -0.980469,0 c 0.222656,-1.132813 0.449219,-2.164063 0.679687,-3.089844 0.230469,-0.9375 0.453125,-1.820313 0.667969,-2.65625 l 1.023437,0 c 0.226563,0.839844 0.449219,1.734375 0.667969,2.683594 0.222657,0.941406 0.441407,1.960937 0.648438,3.0625 l -1.007813,0 m -0.84375,-4.632813 c -0.050781,0.214844 -0.097656,0.425781 -0.144531,0.621094 -0.042969,0.191406 -0.082031,0.386719 -0.125,0.578125 -0.035156,0.183594 -0.070313,0.375 -0.105469,0.566406 -0.03125,0.191406 -0.0625,0.390625 -0.089844,0.59375 l 0.925782,0 C 8.933594,18.734375 8.902344,18.535156 8.871094,18.34375 8.839844,18.152344 8.804688,17.960938 8.765625,17.777344 8.730469,17.585938 8.6875,17.390625 8.640625,17.199219 8.601562,17.003906 8.554688,16.792969 8.503906,16.578125"
       id="path12"
       inkscape:connector-curvature="0" />
    <path
       d="m 12.203125,20.375 c 0.15625,0 0.289063,-0.01563 0.390625,-0.05469 0.105469,-0.04297 0.191406,-0.09766 0.25,-0.167968 0.0625,-0.07422 0.105469,-0.152344 0.125,-0.238282 0.02344,-0.09375 0.03906,-0.1875 0.03906,-0.28125 0,-0.117187 -0.03125,-0.222656 -0.08594,-0.316406 -0.05469,-0.08984 -0.128906,-0.171875 -0.214844,-0.238281 -0.08594,-0.07422 -0.183593,-0.140625 -0.289062,-0.195313 -0.109375,-0.0625 -0.214844,-0.117187 -0.324219,-0.167968 -0.140625,-0.0625 -0.289062,-0.132813 -0.441406,-0.214844 -0.15625,-0.07813 -0.292969,-0.183594 -0.421875,-0.304688 -0.125,-0.125 -0.226563,-0.277343 -0.308594,-0.457031 -0.07813,-0.183593 -0.121094,-0.414062 -0.121094,-0.6875 0,-0.539062 0.144531,-0.957031 0.429688,-1.261719 0.289062,-0.304687 0.6875,-0.457031 1.195312,-0.457031 0.289063,0 0.542969,0.04297 0.757813,0.121094 0.21875,0.08203 0.402344,0.171875 0.550781,0.269531 l -0.277344,0.882813 c -0.125,-0.08594 -0.269531,-0.160157 -0.429687,-0.222657 -0.152344,-0.0625 -0.328125,-0.09375 -0.535156,-0.09375 -0.5,0 -0.75,0.222657 -0.75,0.660157 0,0.113281 0.02734,0.210937 0.07812,0.296875 0.05078,0.08203 0.113282,0.15625 0.191407,0.222656 0.08203,0.0625 0.171875,0.117188 0.265625,0.167969 0.105468,0.05078 0.203125,0.09766 0.300781,0.140625 0.148437,0.06641 0.300781,0.144531 0.457031,0.230468 0.164063,0.08203 0.3125,0.191407 0.445313,0.335938 0.136719,0.136719 0.25,0.308594 0.335937,0.519531 0.08984,0.203125 0.132813,0.464844 0.132813,0.78125 0,0.539063 -0.148438,0.957031 -0.4375,1.253907 -0.285157,0.289062 -0.722657,0.433593 -1.308594,0.433593 -0.394531,0 -0.707031,-0.04687 -0.941406,-0.148437 -0.234375,-0.105469 -0.410157,-0.199219 -0.53125,-0.285156 l 0.277343,-0.929688 c 0.136719,0.09766 0.300782,0.191406 0.488282,0.277344 0.195312,0.08594 0.429687,0.128906 0.707031,0.128906"
       id="path14"
       inkscape:connector-curvature="0" />
    <path
       d="m 16.519531,21.332031 c -0.667969,0 -1.179687,-0.257812 -1.53125,-0.777343 -0.351562,-0.519532 -0.527343,-1.261719 -0.527343,-2.222657 0,-0.476562 0.05469,-0.898437 0.160156,-1.269531 0.109375,-0.371094 0.257812,-0.6875 0.445312,-0.941406 0.195313,-0.257813 0.421875,-0.453125 0.679688,-0.582032 0.265625,-0.136718 0.554687,-0.207031 0.867187,-0.207031 0.167969,0 0.316407,0.01953 0.449219,0.05859 0.140625,0.03125 0.257812,0.06641 0.363281,0.109375 0.101563,0.04297 0.183594,0.08984 0.25,0.140625 0.07422,0.05078 0.125,0.08594 0.160157,0.109375 l -0.242188,0.91016 C 17.476562,16.570312 17.332031,16.492188 17.164062,16.429688 17,16.363281 16.8125,16.328125 16.597656,16.328125 c -0.148437,0 -0.292968,0.03516 -0.4375,0.101563 -0.136718,0.0625 -0.261718,0.171874 -0.375,0.324218 -0.105468,0.148438 -0.195312,0.351563 -0.269531,0.605469 -0.0625,0.253906 -0.09766,0.570313 -0.09766,0.945313 0,0.65625 0.09375,1.160156 0.277343,1.515624 0.1875,0.347657 0.492188,0.519532 0.917969,0.519532 0.246094,0 0.445313,-0.03516 0.605469,-0.101563 0.160156,-0.07031 0.292969,-0.136719 0.390625,-0.203125 l 0.234375,0.898438 c -0.132812,0.101562 -0.3125,0.191406 -0.542969,0.277344 -0.222656,0.08203 -0.484375,0.121093 -0.78125,0.121093"
       id="path16"
       inkscape:connector-curvature="0" />
    <path
       d="m 18.496094,21.210938 0,-0.945313 1.035156,0 0,-3.855469 -1.035156,0 0,-0.945312 3.007812,0 0,0.945312 -1.023437,0 0,3.855469 1.023437,0 0,0.945313 -3.007812,0"
       id="path18"
       inkscape:connector-curvature="0" />
    <path
       d="m 22.324219,21.210938 0,-0.945313 1.035156,0 0,-3.855469 -1.035156,0 0,-0.945312 3.007812,0 0,0.945312 -1.023437,0 0,3.855469 1.023437,0 0,0.945313 -3.007812,0"
       id="path20"
       inkscape:connector-curvature="0" />
  </g>
</svg>

<svg width="32" xmlns="http://www.w3.org/2000/svg" height="32" viewBox="0 0 32 32" xmlns:xlink="http://www.w3.org/1999/xlink">
<path style="fill:#dcdcdc" d="M 5.332031 0.667969 C 4.648438 0.667969 4 1.3125 4 2 L 4 30 C 4 30.648438 4.6875 31.332031 5.332031 31.332031 L 26.667969 31.332031 C 27.3125 31.332031 28 30.648438 28 30 L 28 9.332031 L 19.332031 0.667969 Z "/>
<path style="fill:#000;fill-opacity:.196" d="M 19.332031 8 L 19.375 8.042969 L 19.480469 8 Z M 20.667969 9.332031 L 28 16.667969 L 28 9.332031 Z "/>
<path style="fill:#fff;fill-opacity:.392" d="M 19.332031 0.667969 L 28 9.332031 L 20.667969 9.332031 C 20.019531 9.332031 19.332031 8.648438 19.332031 8 Z "/>
<g style="fill:#545454">
<path d="M 9.347656 21.210938 L 9.125 19.882812 L 7.859375 19.882812 L 7.648438 21.210938 L 6.667969 21.210938 C 6.890625 20.078125 7.117188 19.046875 7.347656 18.121094 C 7.578125 17.183594 7.800781 16.300781 8.015625 15.464844 L 9.039062 15.464844 C 9.265625 16.304688 9.488281 17.199219 9.707031 18.148438 C 9.929688 19.089844 10.148438 20.109375 10.355469 21.210938 L 9.347656 21.210938 M 8.503906 16.578125 C 8.453125 16.792969 8.40625 17.003906 8.359375 17.199219 C 8.316406 17.390625 8.277344 17.585938 8.234375 17.777344 C 8.199219 17.960938 8.164062 18.152344 8.128906 18.34375 C 8.097656 18.535156 8.066406 18.734375 8.039062 18.9375 L 8.964844 18.9375 C 8.933594 18.734375 8.902344 18.535156 8.871094 18.34375 C 8.839844 18.152344 8.804688 17.960938 8.765625 17.777344 C 8.730469 17.585938 8.6875 17.390625 8.640625 17.199219 C 8.601562 17.003906 8.554688 16.792969 8.503906 16.578125 "/>
<path d="M 12.203125 20.375 C 12.359375 20.375 12.492188 20.359375 12.59375 20.320312 C 12.699219 20.277344 12.785156 20.222656 12.84375 20.152344 C 12.90625 20.078125 12.949219 20 12.96875 19.914062 C 12.992188 19.820312 13.007812 19.726562 13.007812 19.632812 C 13.007812 19.515625 12.976562 19.410156 12.921875 19.316406 C 12.867188 19.226562 12.792969 19.144531 12.707031 19.078125 C 12.621094 19.003906 12.523438 18.9375 12.417969 18.882812 C 12.308594 18.820312 12.203125 18.765625 12.09375 18.714844 C 11.953125 18.652344 11.804688 18.582031 11.652344 18.5 C 11.496094 18.421875 11.359375 18.316406 11.230469 18.195312 C 11.105469 18.070312 11.003906 17.917969 10.921875 17.738281 C 10.84375 17.554688 10.800781 17.324219 10.800781 17.050781 C 10.800781 16.511719 10.945312 16.09375 11.230469 15.789062 C 11.519531 15.484375 11.917969 15.332031 12.425781 15.332031 C 12.714844 15.332031 12.96875 15.375 13.183594 15.453125 C 13.402344 15.535156 13.585938 15.625 13.734375 15.722656 L 13.457031 16.605469 C 13.332031 16.519531 13.1875 16.445312 13.027344 16.382812 C 12.875 16.320312 12.699219 16.289062 12.492188 16.289062 C 11.992188 16.289062 11.742188 16.511719 11.742188 16.949219 C 11.742188 17.0625 11.769531 17.160156 11.820312 17.246094 C 11.871094 17.328125 11.933594 17.402344 12.011719 17.46875 C 12.09375 17.53125 12.183594 17.585938 12.277344 17.636719 C 12.382812 17.6875 12.480469 17.734375 12.578125 17.777344 C 12.726562 17.84375 12.878906 17.921875 13.035156 18.007812 C 13.199219 18.089844 13.347656 18.199219 13.480469 18.34375 C 13.617188 18.480469 13.730469 18.652344 13.816406 18.863281 C 13.90625 19.066406 13.949219 19.328125 13.949219 19.644531 C 13.949219 20.183594 13.800781 20.601562 13.511719 20.898438 C 13.226562 21.1875 12.789062 21.332031 12.203125 21.332031 C 11.808594 21.332031 11.496094 21.285156 11.261719 21.183594 C 11.027344 21.078125 10.851562 20.984375 10.730469 20.898438 L 11.007812 19.96875 C 11.144531 20.066406 11.308594 20.160156 11.496094 20.246094 C 11.691406 20.332031 11.925781 20.375 12.203125 20.375 "/>
<path d="M 16.519531 21.332031 C 15.851562 21.332031 15.339844 21.074219 14.988281 20.554688 C 14.636719 20.035156 14.460938 19.292969 14.460938 18.332031 C 14.460938 17.855469 14.515625 17.433594 14.621094 17.0625 C 14.730469 16.691406 14.878906 16.375 15.066406 16.121094 C 15.261719 15.863281 15.488281 15.667969 15.746094 15.539062 C 16.011719 15.402344 16.300781 15.332031 16.613281 15.332031 C 16.78125 15.332031 16.929688 15.351562 17.0625 15.390625 C 17.203125 15.421875 17.320312 15.457031 17.425781 15.5 C 17.527344 15.542969 17.609375 15.589844 17.675781 15.640625 C 17.75 15.691406 17.800781 15.726562 17.835938 15.75 L 17.59375 16.660156 C 17.476562 16.570312 17.332031 16.492188 17.164062 16.429688 C 17 16.363281 16.8125 16.328125 16.597656 16.328125 C 16.449219 16.328125 16.304688 16.363281 16.160156 16.429688 C 16.023438 16.492188 15.898438 16.601562 15.785156 16.753906 C 15.679688 16.902344 15.589844 17.105469 15.515625 17.359375 C 15.453125 17.613281 15.417969 17.929688 15.417969 18.304688 C 15.417969 18.960938 15.511719 19.464844 15.695312 19.820312 C 15.882812 20.167969 16.1875 20.339844 16.613281 20.339844 C 16.859375 20.339844 17.058594 20.304688 17.21875 20.238281 C 17.378906 20.167969 17.511719 20.101562 17.609375 20.035156 L 17.84375 20.933594 C 17.710938 21.035156 17.53125 21.125 17.300781 21.210938 C 17.078125 21.292969 16.816406 21.332031 16.519531 21.332031 "/>
<path d="M 18.496094 21.210938 L 18.496094 20.265625 L 19.53125 20.265625 L 19.53125 16.410156 L 18.496094 16.410156 L 18.496094 15.464844 L 21.503906 15.464844 L 21.503906 16.410156 L 20.480469 16.410156 L 20.480469 20.265625 L 21.503906 20.265625 L 21.503906 21.210938 L 18.496094 21.210938 "/>
<path d="M 22.324219 21.210938 L 22.324219 20.265625 L 23.359375 20.265625 L 23.359375 16.410156 L 22.324219 16.410156 L 22.324219 15.464844 L 25.332031 15.464844 L 25.332031 16.410156 L 24.308594 16.410156 L 24.308594 20.265625 L 25.332031 20.265625 L 25.332031 21.210938 L 22.324219 21.210938 "/>
</g>
</svg>
